X: 6
T: The Clumsy Lover (1st & 4th parts)
R: reel
M: 4/4
L: 1/8
K: Amaj
|:"A"ceef ecBA|"D"dfff =gfed|"A"ceef ecBA|"E"dBBA B2d2|
"A"ceef ecBA|"D"dfff =gfed|"A"ceec d2GB|BAAB "A"A4:|
|:"A"caac acac|"D"daad adad|"A"caac acac|"E"Bece deBe|
"A"caac acac|"D"daad adad|"A"ceec d2GB|BAAB "A"A4:|

%%newpage
%% header "Lisa is Extra		$P"

